**harm	**harte	**timestamp	**phrase	**leadinstrument	**kern
*M4/4	*M4/4	*	*	*	*
*E-:	*E-:	*	*	*	*E-:
1r;	N	0	.	r	1r;
=1	=1	=1	=1	=1	=1
*>A2_intro	*>A2_intro	*>A2_intro	*>A2_intro	*>A2_intro	*>A2_intro
2r	N	0.441	newline	strings	2r
4IV	A-:maj	1.774	.	strings	4A- 4cc 4ee-
4iii7	G:min7	2.441	.	strings	4G 4b- 4dd 4ff
=2	=2	=2	=2	=2	=2
1V	B-:sus4(b7,9,13)	3.108	.	strings	1B- 1dd 1ff
=3	=3	=3	=3	=3	=3
1IVm7	A-:7(b9)	5.774	.	strings	1A- 1cc 1ee- 1gg
=4	=4	=4	=4	=4	=4
1I	E-:maj6	8.44	.	strings	1E- 1g 1b-
=5	=5	=5	=5	=5	=5
1I	E-:maj6	11.107	.	strings	1E- 1g 1b-
=6	=6	=6	=6	=6	=6
*>B_verse	*>B_verse	*>B_verse	*>B_verse	*>B_verse	*>B_verse
1ii7	F:min7	13.773	newline	voice	1F 1a- 1cc 1ee-
=7	=7	=7	=7	=7	=7
1V7	B-:7	16.622	.	voice	1B- 1dd 1ff 1aa-
=8	=8	=8	=8	=8	=8
2I	E-:maj	19.472	.	voice	2E- 2g 2b-
2I	E-:maj6	20.896	.	voice	2E- 2g 2b-
=9	=9	=9	=9	=9	=9
2I7	E-:maj7	22.321	.	voice	2E- 2g 2b- 2dd
2I	E-:maj6	23.746	.	voice	2E- 2g 2b-
=10	=10	=10	=10	=10	=10
1ii7	F:min7	25.17	newline	voice	1F 1a- 1cc 1ee-
=11	=11	=11	=11	=11	=11
1V7	B-:7	27.516	.	voice	1B- 1dd 1ff 1aa-
=12	=12	=12	=12	=12	=12
2I	E-:maj	29.862	.	voice	2E- 2g 2b-
2I	E-:maj6	31.034	.	voice	2E- 2g 2b-
=13	=13	=13	=13	=13	=13
1I7	E-:maj7	32.207	.	voice	1E- 1g 1b- 1dd
=14	=14	=14	=14	=14	=14
1I	E-:maj	34.553	.	voice	1E- 1g 1b-
=15	=15	=15	=15	=15	=15
1IV	A-:maj	36.898	newline	voice	1A- 1cc 1ee-
=16	=16	=16	=16	=16	=16
1V7	B-:7	39.769	.	voice	1B- 1dd 1ff 1aa-
=17	=17	=17	=17	=17	=17
1I	E-:maj	42.64	.	voice	1E- 1g 1b-
=18	=18	=18	=18	=18	=18
1I	E-:maj	45.51	.	voice	1E- 1g 1b-
=19	=19	=19	=19	=19	=19
1IV	A-:maj	48.381	newline	voice	1A- 1cc 1ee-
=20	=20	=20	=20	=20	=20
1ii7	F:min7	51.294	.	voice	1F 1a- 1cc 1ee-
=21	=21	=21	=21	=21	=21
1V7	B-:7	54.207	.	voice	1B- 1dd 1ff 1aa-
=22	=22	=22	=22	=22	=22
1V	B-:sus4(b7,9)	57.12	.	voice	1B- 1dd 1ff
=23	=23	=23	=23	=23	=23
*>C_chorus	*>C_chorus	*>C_chorus	*>C_chorus	*>C_chorus	*>C_chorus
1I7	E-:maj7	60.033	newline	voice	1E- 1g 1b- 1dd
=24	=24	=24	=24	=24	=24
1I7	E-:maj7	62.89	.	voice	1E- 1g 1b- 1dd
=25	=25	=25	=25	=25	=25
1V	B-:maj	65.748	.	voice	1B- 1dd 1ff
=26	=26	=26	=26	=26	=26
1V7	B-:7	68.605	.	voice	1B- 1dd 1ff 1aa-
=27	=27	=27	=27	=27	=27
1V7	B-:7	71.463	newline	voice	1B- 1dd 1ff 1aa-
=28	=28	=28	=28	=28	=28
1V7	B-:7	74.306	.	voice	1B- 1dd 1ff 1aa-
=29	=29	=29	=29	=29	=29
1I	E-:maj	77.148	.	voice	1E- 1g 1b-
=30	=30	=30	=30	=30	=30
2ii7	F:min7	79.991	.	voice	2F 2a- 2cc 2ee-
2V7	B-:7	81.412	.	voice	2B- 2dd 2ff 2aa-
=31	=31	=31	=31	=31	=31
2I	E-:maj	82.834	newline	voice	2E- 2g 2b-
2I7	E-:maj9	84.263	.	voice	2E- 2g 2b- 2dd
=32	=32	=32	=32	=32	=32
2ii7	F:min7	85.692	.	voice	2F 2a- 2cc 2ee-
2Im7	E-:7	87.121	.	voice	2E- 2g 2b- 2dd
=33	=33	=33	=33	=33	=33
2IV7	A-:maj9	88.55	.	voice	2A- 2cc 2ee- 2gg
2IV	A-:maj6	89.979	.	voice	2A- 2cc 2ee-
=34	=34	=34	=34	=34	=34
2iv	A-:min(9)	91.408	.	voice	2A- 2cc- 2ee-
2iv	A-:min	92.837	.	voice	2A- 2cc- 2ee-
=35	=35	=35	=35	=35	=35
1V7	B-:7	94.266	newline	voice	1B- 1dd 1ff 1aa-
=36	=36	=36	=36	=36	=36
1ii	F:sus4(b7,9)	97.125	.	voice	1F 1a- 1cc
=37	=37	=37	=37	=37	=37
1V7	B-:7	99.984	.	voice	1B- 1dd 1ff 1aa-
=38	=38	=38	=38	=38	=38
1V7	B-:7(b9)	102.843	.	voice	1B- 1dd 1ff 1aa-
=39	=39	=39	=39	=39	=39
*>A_trans	*>A_trans	*>A_trans	*>A_trans	*>A_trans	*>A_trans
1I7	E-:maj7	105.702	newline	strings	1E- 1g 1b- 1dd
=40	=40	=40	=40	=40	=40
1V	B-:sus4(b7,9)	108.548	.	strings	1B- 1dd 1ff
=41	=41	=41	=41	=41	=41
1I	E-:maj	111.394	.	strings	1E- 1g 1b-
=42	=42	=42	=42	=42	=42
1I	E-:maj	114.24	.	strings	1E- 1g 1b-
=43	=43	=43	=43	=43	=43
*>B_verse	*>B_verse	*>B_verse	*>B_verse	*>B_verse	*>B_verse
1ii7	F:min7	117.086	newline	voice	1F 1a- 1cc 1ee-
=44	=44	=44	=44	=44	=44
1V7	B-:7	119.939	.	voice	1B- 1dd 1ff 1aa-
=45	=45	=45	=45	=45	=45
2I	E-:maj	122.792	.	voice	2E- 2g 2b-
2I7	E-:maj7	124.219	.	voice	2E- 2g 2b- 2dd
=46	=46	=46	=46	=46	=46
2I	E-:maj6	125.646	.	voice	2E- 2g 2b-
2I	E-:maj	127.073	.	voice	2E- 2g 2b-
=47	=47	=47	=47	=47	=47
1ii7	F:min7	128.499	newline	voice	1F 1a- 1cc 1ee-
=48	=48	=48	=48	=48	=48
2V	B-:sus4(b7)	131.339	.	voice	2B- 2dd 2ff
2V7	B-:7	132.759	.	voice	2B- 2dd 2ff 2aa-
=49	=49	=49	=49	=49	=49
2I	E-:maj	134.178	.	voice	2E- 2g 2b-
2I7	E-:maj7	135.598	.	voice	2E- 2g 2b- 2dd
=50	=50	=50	=50	=50	=50
2I	E-:maj6	137.018	.	voice	2E- 2g 2b-
2I	E-:maj	138.438	.	voice	2E- 2g 2b-
=51	=51	=51	=51	=51	=51
1IV	A-:maj	139.858	newline	voice	1A- 1cc 1ee-
=52	=52	=52	=52	=52	=52
1V7	B-:7	142.722	.	voice	1B- 1dd 1ff 1aa-
=53	=53	=53	=53	=53	=53
2I	E-:maj	145.587	.	voice	2E- 2g 2b-
2I7	E-:maj7	147.019	.	voice	2E- 2g 2b- 2dd
=54	=54	=54	=54	=54	=54
2I	E-:maj6	148.452	.	voice	2E- 2g 2b-
2I	E-:maj	149.884	.	voice	2E- 2g 2b-
=55	=55	=55	=55	=55	=55
1IV	A-:maj	151.317	newline	voice	1A- 1cc 1ee-
=56	=56	=56	=56	=56	=56
1ii7	F:min7	154.187	.	voice	1F 1a- 1cc 1ee-
=57	=57	=57	=57	=57	=57
1V7	B-:7	157.058	.	voice	1B- 1dd 1ff 1aa-
=58	=58	=58	=58	=58	=58
1V	B-:sus4(b7,9)	159.929	.	voice	1B- 1dd 1ff
=59	=59	=59	=59	=59	=59
*>C_chorus	*>C_chorus	*>C_chorus	*>C_chorus	*>C_chorus	*>C_chorus
1I7	E-:maj7	162.8	newline	voice	1E- 1g 1b- 1dd
=60	=60	=60	=60	=60	=60
1I7	E-:maj7	165.619	.	voice	1E- 1g 1b- 1dd
=61	=61	=61	=61	=61	=61
1V	B-:maj	168.439	.	voice	1B- 1dd 1ff
=62	=62	=62	=62	=62	=62
1V7	B-:7	171.259	.	voice	1B- 1dd 1ff 1aa-
=63	=63	=63	=63	=63	=63
1V7	B-:7	174.079	newline	voice	1B- 1dd 1ff 1aa-
=64	=64	=64	=64	=64	=64
1V7	B-:7	176.906	.	voice	1B- 1dd 1ff 1aa-
=65	=65	=65	=65	=65	=65
1I	E-:maj	179.732	.	voice	1E- 1g 1b-
=66	=66	=66	=66	=66	=66
2ii7	F:min7	182.559	.	voice	2F 2a- 2cc 2ee-
2V7	B-:7	183.972	.	voice	2B- 2dd 2ff 2aa-
=67	=67	=67	=67	=67	=67
2I	E-:maj	185.385	newline	voice	2E- 2g 2b-
2I7	E-:maj9	186.808	.	voice	2E- 2g 2b- 2dd
=68	=68	=68	=68	=68	=68
2ii7	F:min7	188.231	.	voice	2F 2a- 2cc 2ee-
2Im7	E-:7	189.654	.	voice	2E- 2g 2b- 2dd
=69	=69	=69	=69	=69	=69
2IV7	A-:maj9	191.077	.	voice	2A- 2cc 2ee- 2gg
2IV	A-:maj6	192.5	.	voice	2A- 2cc 2ee-
=70	=70	=70	=70	=70	=70
2iv	A-:min(9)	193.922	.	voice	2A- 2cc- 2ee-
2iv	A-:min	195.345	.	voice	2A- 2cc- 2ee-
=71	=71	=71	=71	=71	=71
1V7	B-:7	196.768	newline	voice	1B- 1dd 1ff 1aa-
=72	=72	=72	=72	=72	=72
1ii	F:sus4(b7,9)	199.612	.	voice	1F 1a- 1cc
=73	=73	=73	=73	=73	=73
1V7	B-:7	202.457	.	voice	1B- 1dd 1ff 1aa-
=74	=74	=74	=74	=74	=74
1V7	B-:7(b9)	205.301	.	voice	1B- 1dd 1ff 1aa-
=75	=75	=75	=75	=75	=75
*>A_outro	*>A_outro	*>A_outro	*>A_outro	*>A_outro	*>A_outro
1I7	E-:maj7	208.146	newline	strings	1E- 1g 1b- 1dd
=76	=76	=76	=76	=76	=76
1V	B-:sus4(b7,9)	210.968	.	strings	1B- 1dd 1ff
=77	=77	=77	=77	=77	=77
1I	E-:maj	213.789	.	strings	1E- 1g 1b-
=78	=78	=78	=78	=78	=78
1V	B-:sus4(b7,9)	216.611	.	strings	1B- 1dd 1ff
=79	=79	=79	=79	=79	=79
1I	E-:maj	219.433	.	strings	1E- 1g 1b-
1r;	N	226.487	.	r	1r;
1r;	N	230.426	.	r	1r;
*-	*-	*-	*-	*-	*-
!!!OTL: For The Good Times
!!!COC: Ray Price
!!!BillboardChartDate: 1970/09/26, 1970/12/12
!!!BillboardPeak: 11, 11
!!!BillboardWeeksOnChart: 24, 24
!!!SampleTargetRank: 65, 22
!!!SampleActualRank: 66, 23
!!!SampleID#: 102, 725
!!!RDF**harmony: **recip + pitch class of root + harmonic quality
!!!RDF**harte: Chris Harte's syntax, used by MIREX
!!!RDF**phrase: newline = linebreak in original McGill transcription
!!!RDF**timestamp: McGill audio timestamp in seconds
!!!RDF**leadinstrument: original McGill primary instrumentation annotation
!!!RDT: 2017/01/12/
!!!ENC: Nathaniel Condit-Schultz
!!!EST: Awating manual error checking and editing.
